Improvs/dist/images/footer_page/facebook.svg

<svg width="18" height="18" viewBox="0 0 18 18" fill="none" xmlns="http://www.w3.org/2000/svg">
<path d="M9.0012 1.50195C4.8597 1.50195 1.50195 4.8597 1.50195 9.0012C1.50195 12.7437 4.24395 15.8457 7.8297 16.4105V11.1695H5.9247V9.0012H7.8297V7.34895C7.8297 5.46795 8.94945 4.4307 10.6617 4.4307C11.4822 4.4307 12.3417 4.57695 12.3417 4.57695V6.4212H11.3937C10.4637 6.4212 10.1727 7.0002 10.1727 7.59345V8.9997H12.251L11.9187 11.168H10.1727V16.409C13.7585 15.8472 16.5005 12.7445 16.5005 9.0012C16.5005 4.8597 13.1427 1.50195 9.0012 1.50195Z" fill="white"/>
</svg>

<svg width="18" height="18" fill="none" xmlns="http://www.w3.org/2000/svg"><path d="M9.001 1.502A7.5 7.5 0 007.83 16.41v-5.24H5.925V9H7.83V7.35c0-1.881 1.12-2.918 2.832-2.918.82 0 1.68.146 1.68.146v1.844h-.948c-.93 0-1.221.58-1.221 1.172V9h2.078l-.332 2.168h-1.746v5.241A7.5 7.5 0 009 1.502z" fill="#fff"/></svg>
